assets/img/icon/23.svg

<svg width="45" height="45" viewBox="0 0 45 45" fill="none" xmlns="http://www.w3.org/2000/svg">
<g id="maintenance 1">
<g id="Layer_1">
<g id="Group">
<path id="Vector" fill-rule="evenodd" clip-rule="evenodd" d="M38.1141 10.8388L34.4114 7.13611C34.0803 6.80494 33.5577 6.76291 33.1778 7.03693L29.7485 9.51096C29.468 9.71341 29.099 9.7509 28.7859 9.60389C28.3485 9.39849 27.9027 9.21626 27.4507 9.05744C27.1183 8.94042 26.8791 8.64709 26.8274 8.29854L26.1994 4.06382C26.1301 3.59564 25.7283 3.24902 25.255 3.24902H20.0188C19.5505 3.24902 19.1511 3.58882 19.0763 4.05132L18.3796 8.35796C18.324 8.70117 18.0858 8.98553 17.7588 9.10402C17.3521 9.25148 16.9505 9.4178 16.5558 9.6031C16.2365 9.75295 15.8612 9.71773 15.578 9.50755L12.0396 6.88322C11.6595 6.60136 11.1304 6.64021 10.7958 6.9749L7.09301 10.6778C6.76184 11.009 6.71969 11.5316 6.99383 11.9115L9.58022 15.4962C9.78483 15.7797 9.8163 16.1514 9.66668 16.4674C9.4874 16.8456 9.32563 17.2303 9.18134 17.6196C9.05967 17.948 8.77099 18.1854 8.42472 18.2367L4.0206 18.8898C3.55243 18.9591 3.20581 19.361 3.20581 19.8343V25.0704C3.20581 25.5387 3.54561 25.9382 4.00811 26.0129L8.32565 26.7116C8.67397 26.7681 8.96117 27.0126 9.07671 27.3459C9.21838 27.7552 9.37914 28.1591 9.55875 28.5568C9.70189 28.8737 9.66418 29.2426 9.45718 29.5216L6.84057 33.0497C6.55871 33.4298 6.59757 33.9589 6.93225 34.2934L10.635 37.9961C10.9661 38.3273 11.4887 38.3693 11.8686 38.0953L15.3133 35.61C15.5988 35.4042 15.9751 35.3703 16.2906 35.5263C16.725 35.7411 17.168 35.9328 17.6176 36.1011C17.9411 36.2222 18.1713 36.5116 18.222 36.8531L18.8471 41.0683C18.9164 41.5365 19.3182 41.8831 19.7915 41.8831H25.0278C25.4961 41.8831 25.8955 41.5433 25.9703 41.0808L26.6283 37.0133C26.685 36.6631 26.9329 36.3756 27.2694 36.2625C27.7581 36.0981 28.2395 35.9069 28.7117 35.6883C29.0306 35.5409 29.404 35.5763 29.6862 35.7858L33.007 38.2489C33.3872 38.5308 33.9162 38.4919 34.2508 38.1572L37.9534 34.4545C38.2846 34.1234 38.3267 33.6008 38.0526 33.2209L35.679 29.9308C35.4719 29.6436 35.4424 29.2663 35.5978 28.9482C35.8337 28.4655 36.041 27.9724 36.2198 27.4715C36.339 27.1373 36.63 26.8944 36.9809 26.8424L41.0259 26.2425C41.4941 26.1732 41.8407 25.7714 41.8407 25.2981V20.0618C41.8407 19.5935 41.5009 19.1941 41.0384 19.1193L36.9865 18.4638C36.6396 18.4076 36.3536 18.1648 36.2368 17.8334C36.0657 17.3485 35.8678 16.8708 35.6431 16.4029C35.4887 16.0816 35.5217 15.7017 35.7343 15.4154L38.2063 12.0826C38.4878 11.7027 38.4487 11.1735 38.1141 10.8388ZM33.2693 22.5662C33.2693 28.5012 28.4581 33.3124 22.5231 33.3124C16.5881 33.3124 11.7768 28.5012 11.7768 22.5662C11.7768 16.6312 16.5881 11.8199 22.5231 11.8199C28.4581 11.8199 33.2693 16.6312 33.2693 22.5662Z" fill="black"/>
<path id="Vector_2" fill-rule="evenodd" clip-rule="evenodd" d="M19.1674 27.318L16.6488 24.7995C15.9867 24.1373 15.9867 23.0636 16.6488 22.4015C17.3109 21.7394 18.3845 21.7394 19.0467 22.4015L20.2532 23.6079L25.9998 17.8613C26.662 17.1992 27.7355 17.1992 28.3978 17.8613C29.0599 18.5234 29.0599 19.597 28.3978 20.2592L21.3391 27.3179C20.7391 27.9178 19.767 27.9178 19.1674 27.318Z" fill="black"/>
</g>
</g>
</g>
</svg>

<svg xmlns="http://www.w3.org/2000/svg" width="45" height="45" fill="none" viewBox="0 0 45 45"><g fill="#000" fill-rule="evenodd" clip-rule="evenodd"><path d="m38.114 10.839-3.703-3.703a.955.955 0 0 0-1.233-.1l-3.43 2.475a.95.95 0 0 1-.962.093 14 14 0 0 0-1.335-.547.95.95 0 0 1-.624-.758L26.2 4.064a.955.955 0 0 0-.944-.815H20.02a.955.955 0 0 0-.943.802l-.696 4.307a.96.96 0 0 1-.621.746q-.61.22-1.203.5a.96.96 0 0 1-.978-.096L12.04 6.883a.955.955 0 0 0-1.244.092l-3.703 3.703a.955.955 0 0 0-.1 1.233l2.587 3.585a.96.96 0 0 1 .087.971q-.27.568-.486 1.153a.96.96 0 0 1-.756.617l-4.404.653a.955.955 0 0 0-.815.944v5.236c0 .469.34.868.802.943l4.318.699a.96.96 0 0 1 .75.634q.213.615.483 1.21a.96.96 0 0 1-.102.966L6.841 33.05a.954.954 0 0 0 .091 1.243l3.703 3.703a.955.955 0 0 0 1.234.1l3.444-2.486a.95.95 0 0 1 .978-.084q.651.323 1.327.575a.95.95 0 0 1 .604.752l.625 4.215c.07.468.471.815.944.815h5.237c.468 0 .867-.34.942-.802l.658-4.068a.96.96 0 0 1 .641-.75q.734-.247 1.443-.575a.96.96 0 0 1 .974.098l3.321 2.463c.38.282.91.243 1.244-.092l3.702-3.702a.955.955 0 0 0 .1-1.234l-2.374-3.29a.96.96 0 0 1-.081-.983q.354-.725.622-1.477a.96.96 0 0 1 .76-.629l4.046-.6a.955.955 0 0 0 .815-.944v-5.236a.955.955 0 0 0-.803-.943l-4.051-.655a.96.96 0 0 1-.75-.63 14 14 0 0 0-.594-1.431.96.96 0 0 1 .091-.988l2.472-3.332a.955.955 0 0 0-.092-1.244M33.27 22.566c0 5.935-4.81 10.746-10.746 10.746-5.935 0-10.746-4.81-10.746-10.746 0-5.935 4.811-10.746 10.746-10.746S33.27 16.63 33.27 22.566"/><path d="m19.167 27.318-2.518-2.519a1.696 1.696 0 0 1 2.398-2.398l1.206 1.207L26 17.86a1.696 1.696 0 0 1 2.398 2.398l-7.059 7.059c-.6.6-1.572.6-2.172 0"/></g></svg>
